src/assets/svg/yoga-ui-logo.svg

<?xml version="1.0" encoding="UTF-8"?>
<svg width="107px" height="91px" viewBox="0 0 107 91" version="1.1" xmlns="http://www.w3.org/2000/svg" xmlns:xlink="http://www.w3.org/1999/xlink">
    <!-- Generator: Sketch 63.1 (92452) - https://sketch.com -->
    <title>noun_yoga_1655016</title>
    <desc>Created with Sketch.</desc>
    <g id="Behance" stroke="none" stroke-width="1" fill="none" fill-rule="evenodd">
        <g id="Modular" transform="translate(-875.000000, -66.000000)" fill="#7B4FFF">
            <g id="noun_yoga_1655016" transform="translate(875.000000, 66.000000)">
                <g id="Group">
                    <path d="M33.6221288,32.7693663 C30.5000794,31.1799383 27.0991014,29.6199242 23.4124189,28.0916475 C22.794963,31.7400224 22.3276534,35.1960472 22.0062261,38.4632559 C25.2244495,39.1955444 28.2222736,40.0263463 31.0055364,40.9527393 C31.6833772,38.3219479 32.5537711,35.5948714 33.6221288,32.7693663 Z M32.1180446,47.8698861 C28.068928,46.3139401 23.4196943,44.989417 18.1433405,43.916667 C16.6375227,43.6105147 15.5942673,42.2160782 15.7122008,40.6671555 C16.117291,35.346756 16.908785,29.5527994 18.101961,23.267861 C18.4593279,21.3854655 20.4143108,20.2894045 22.1819937,20.9803909 C28.4489742,23.4301509 34.0115887,25.9749353 38.8971066,28.6101287 C40.2798593,29.3559698 40.8751687,31.0429796 40.2718066,32.505804 C38.3373497,37.1958082 36.9843383,41.5591431 36.1761967,45.6051694 C35.80467,47.4652463 33.8719241,48.543846 32.1180446,47.8698861 Z M75.9944636,40.9527393 C78.7777264,40.0263463 81.7755505,39.1955444 84.993774,38.4632559 C84.6723466,35.1960472 84.2050369,31.7400224 83.587581,28.0916475 C79.9008988,29.6199242 76.4999206,31.1799383 73.3778712,32.7693663 C74.4462295,35.5948726 75.3166237,38.3219501 75.9944636,40.9527393 Z M68.1028934,28.6101287 C72.9884113,25.9749353 78.551026,23.4301509 84.8180063,20.9803909 C86.5856893,20.2894045 88.540672,21.3854655 88.898039,23.267861 C90.0912151,29.5527994 90.8827089,35.346756 91.2877991,40.6671555 C91.4057329,42.2160782 90.3624774,43.6105147 88.8566595,43.916667 C83.5803056,44.989417 78.931072,46.3139401 74.8819554,47.8698861 C73.1280756,48.543846 71.1953297,47.465246 70.8238033,45.6051688 C70.0156614,41.5591425 68.66265,37.1958073 66.7281934,32.505804 C66.1248313,31.0429796 66.7201407,29.3559698 68.1028934,28.6101287 Z" id="Shape"></path>
                    <path d="M68.1018365,78.1019777 C65.7849924,80.2924814 63.3762236,81.9817617 61.0775583,83.2477309 C64.5949714,84.3691176 68.259117,84.6578262 71.9323431,83.8159772 C83.2271886,81.227366 93.0764048,68.5738358 99.9536777,42.1497658 C91.0548805,43.2213182 83.5106539,44.8610376 77.2442604,47.0118198 C79.3150839,60.5962418 75.7166974,70.9023648 68.1018365,78.1019777 Z M72.72332,42.1231032 C80.9087333,38.9777104 91.1677352,36.7628648 103.672563,35.5671151 C105.745808,35.3688651 107.397511,37.2906672 106.914871,39.3396296 C99.5277526,70.7003195 87.8254401,86.4769168 73.2755312,89.8115399 C68.0332225,91.0129991 62.884964,90.4620475 58.057387,88.7034965 C55.1706182,87.6519276 52.9990666,86.4196474 51.7182326,85.4820539 C49.6103578,83.9390509 50.2695254,80.6048999 52.8019647,80.0004043 C53.4591775,79.843527 54.7111956,79.4313454 56.3207457,78.6992062 C59.0301498,77.466775 61.6484452,75.7882523 63.9512661,73.611007 C70.5109766,67.4090056 73.3792534,58.3992069 70.8238042,45.6051697 C70.5293043,44.1307357 71.333066,42.6573335 72.72332,42.1231032 Z" id="Shape"></path>
                    <path d="M54.1975491,85.9837119 C53.7388081,86.0931332 53.2611919,86.0931332 52.8024509,85.9837119 C49.7494346,85.25549 45.3719456,83.3992374 40.9853256,79.9115036 C23.5832633,66.0753933 23.5832633,40.5633516 51.0182159,1.29976064 C52.2291382,-0.433253548 54.7708618,-0.433253548 55.9817841,1.29976064 C77.5161959,32.11878 82.2458996,54.6818658 74.1343115,70.1604215 C71.2212844,75.7190683 66.8739342,79.8668812 61.7278504,82.8128129 C58.6470995,84.5764221 55.9534854,85.5648765 54.1975491,85.9837119 Z M54.4267099,79.4781584 C55.7933677,78.9766466 57.2527586,78.310713 58.7340307,77.4627428 C62.9364756,75.0570076 66.4418895,71.7124872 68.7640382,67.2813565 C75.3223271,54.7668109 71.7024767,35.6571513 53.4990476,8.47297206 C30.2500273,43.1378449 30.7162487,63.9271328 44.7415782,75.0784552 C46.8388362,76.7459526 49.0966001,78.0384341 51.3510945,78.9944413 C52.2200437,79.3629148 52.9501643,79.6271044 53.4942672,79.799978 C53.7534492,79.7170032 54.0664798,79.610349 54.4267099,79.4781584 Z" id="Shape"></path>
                    <path d="M34.27668,42.1231032 C35.666934,42.6573335 36.4706957,44.1307357 36.1761958,45.6051697 C33.6202786,58.4015509 36.4900302,67.412241 43.0521437,73.6142307 C45.35548,75.7911616 47.9741051,77.4692399 50.6834895,78.7011329 C52.2922127,79.4325813 53.596585,79.8617907 54.1976612,80.0003148 C56.7303561,80.6045295 57.3897896,83.9389526 55.2817601,85.4820588 C54.0008863,86.4196763 51.8293311,87.6519535 48.9425488,88.7035199 C44.114967,90.4620604 38.9667076,91.0129985 33.7244019,89.8115246 C19.1745222,86.476866 7.47223547,70.7002688 0.0851292064,39.3396296 C-0.39751093,37.2906672 1.25419193,35.3688651 3.32743651,35.5671151 C15.8322649,36.7628648 26.0912666,38.9777104 34.27668,42.1231032 Z M7.04632217,42.1497658 C13.9235842,68.5737928 23.7727809,81.2273267 35.0676059,83.8159655 C38.7408253,84.6578234 42.4049654,84.3691265 45.922377,83.2477515 C43.625443,81.9826611 41.21818,80.2946749 38.9023887,78.1059723 C31.2847026,70.9063389 27.6844976,60.598947 29.7557393,47.0118195 C23.4893458,44.8610373 15.9451193,43.2213182 7.04632217,42.1497658 Z" id="Shape"></path>
                    <ellipse id="Oval" cx="53.5" cy="61.4755556" rx="6.07802747" ry="6.14755556"></ellipse>
                    <ellipse id="Oval" cx="53.5" cy="44.5697778" rx="4.5585206" ry="4.61066667"></ellipse>
                    <ellipse id="Oval" cx="53.5" cy="30.7377778" rx="3.03901373" ry="3.07377778"></ellipse>
                </g>
            </g>
        </g>
    </g>
</svg>

<svg viewBox="0 0 107 91" xmlns="http://www.w3.org/2000/svg"><g fill="#7B4FFF" fill-rule="evenodd"><path d="M33.622 32.77a144.477 144.477 0 00-10.21-4.678 150.719 150.719 0 00-1.406 10.371 95.872 95.872 0 019 2.49 78.697 78.697 0 012.616-8.184zm-1.504 15.1c-4.05-1.556-8.698-2.88-13.975-3.953-1.505-.306-2.549-1.7-2.43-3.25.404-5.32 1.196-11.114 2.389-17.4.357-1.882 2.312-2.978 4.08-2.287 6.267 2.45 11.83 4.995 16.715 7.63a3.09 3.09 0 011.375 3.896c-1.935 4.69-3.288 9.053-4.096 13.1-.371 1.86-2.304 2.938-4.058 2.264zm43.876-6.917a95.872 95.872 0 019-2.49 150.719 150.719 0 00-1.406-10.371 144.477 144.477 0 00-10.21 4.677 78.697 78.697 0 012.616 8.184zM68.103 28.61c4.885-2.635 10.448-5.18 16.715-7.63 1.768-.69 3.723.405 4.08 2.288 1.193 6.285 1.985 12.079 2.39 17.4.118 1.548-.926 2.943-2.431 3.249-5.277 1.072-9.926 2.397-13.975 3.953-1.754.674-3.687-.405-4.058-2.265-.808-4.046-2.161-8.41-4.096-13.1a3.09 3.09 0 011.375-3.895z"/><path d="M68.102 78.102a34.44 34.44 0 01-7.024 5.146c3.517 1.121 7.181 1.41 10.854.568 11.295-2.589 21.144-15.242 28.022-41.666-8.9 1.071-16.443 2.711-22.71 4.862 2.071 13.584-1.527 23.89-9.142 31.09zm4.621-35.979c8.186-3.145 18.445-5.36 30.95-6.556 2.073-.198 3.725 1.724 3.242 3.773-7.387 31.36-19.09 47.137-33.64 50.472-5.242 1.201-10.39.65-15.218-1.109-2.886-1.051-5.058-2.283-6.339-3.22-2.108-1.544-1.448-4.878 1.084-5.483.657-.156 1.91-.569 3.519-1.3 2.71-1.233 5.327-2.912 7.63-5.089 6.56-6.202 9.428-15.212 6.873-28.006a3.08 3.08 0 011.9-3.482z"/><path d="M54.198 85.984c-.46.11-.937.11-1.396 0-3.053-.729-7.43-2.585-11.817-6.072C23.583 66.075 23.583 40.563 51.018 1.3a3.02 3.02 0 014.964 0c21.534 30.819 26.264 53.382 18.152 68.86-2.913 5.56-7.26 9.707-12.406 12.653-3.08 1.763-5.775 2.752-7.53 3.17zm.229-6.506a28.427 28.427 0 004.307-2.015c4.202-2.406 7.708-5.75 10.03-10.182 6.558-12.514 2.938-31.624-15.265-58.808-23.249 34.665-22.783 55.454-8.757 66.605a28.535 28.535 0 006.61 3.916c.868.369 1.598.633 2.142.806.26-.083.572-.19.933-.322z"/><path d="M34.277 42.123a3.08 3.08 0 011.9 3.482c-2.557 12.797.313 21.807 6.875 28.01 2.303 2.176 4.922 3.854 7.631 5.086 1.61.732 2.914 1.16 3.515 1.3 2.532.604 3.192 3.938 1.084 5.481-1.281.938-3.453 2.17-6.34 3.222-4.827 1.758-9.975 2.309-15.218 1.108C19.174 86.477 7.472 70.7.085 39.34c-.483-2.05 1.17-3.971 3.242-3.773 12.505 1.196 22.764 3.41 30.95 6.556zm-27.23.027c6.877 26.424 16.726 39.077 28.02 41.666 3.674.842 7.338.553 10.855-.568a34.445 34.445 0 01-7.02-5.142c-7.617-7.2-11.218-17.507-9.146-31.094-6.267-2.151-13.81-3.79-22.71-4.862z"/><ellipse cx="53.5" cy="61.476" rx="6.078" ry="6.148"/><ellipse cx="53.5" cy="44.57" rx="4.559" ry="4.611"/><ellipse cx="53.5" cy="30.738" rx="3.039" ry="3.074"/></g></svg>
